X:1
T:Cruel Mother (Fine Flowers)
M:4/4
L:1/8
K:Bb
 G2G-F D2 D2| G2G-F D4| B4 A2 Bc| c4 B2B-c| d2 d2 c2B-A| G3/2- A/2 B2 D2 C3/2 C/2|\
 D2 B2B-AG-^F| G4 G4|
